src/assets/icon-warning.svg

<svg width="56" height="49" viewBox="0 0 56 49" fill="none" xmlns="http://www.w3.org/2000/svg">
<path d="M54.1185 38.1922C54.1126 38.182 54.1066 38.1719 54.1006 38.1616L33.712 4.12443C33.7099 4.1209 33.7077 4.11748 33.7057 4.11395C32.7326 2.50964 31.1928 1.3802 29.3704 0.933967C27.5477 0.48741 25.6606 0.777811 24.0562 1.75098C23.0939 2.33478 22.2768 3.1519 21.6932 4.11406C21.6912 4.11748 21.689 4.1209 21.687 4.12443L1.2983 38.1614C1.29221 38.1717 1.28623 38.1818 1.28035 38.1921C0.342023 39.8171 0.0926643 41.7102 0.578234 43.5226C1.0638 45.3351 2.22594 46.85 3.85099 47.7883C4.89417 48.3906 6.08218 48.7159 7.28653 48.7293C7.29466 48.7294 7.30278 48.7294 7.3109 48.7294H48.0882C48.0963 48.7294 48.1044 48.7294 48.1124 48.7295C51.9855 48.6868 55.102 45.5011 55.0595 41.6278C55.0461 40.4233 54.7209 39.2352 54.1185 38.1922ZM48.0741 44.3085H7.3249C6.88187 44.3019 6.44536 44.1815 6.06155 43.9597C5.45926 43.612 5.02852 43.0505 4.84853 42.3787C4.66982 41.7118 4.7596 41.0154 5.10131 40.4159L25.476 6.40232C25.692 6.04757 25.9939 5.74627 26.3491 5.53079C26.9438 5.17017 27.6435 5.06254 28.3189 5.22799C28.9928 5.39302 29.5622 5.80986 29.9231 6.40221L50.2973 40.4157C50.5159 40.7992 50.6339 41.2347 50.6387 41.6762C50.6546 43.1085 49.5049 44.2871 48.0741 44.3085Z" fill="#F5A623"/>
<path d="M27.7065 15.4209C26.4857 15.4209 25.4961 16.4106 25.4961 17.6313V27.2599C25.4961 28.4808 26.4858 29.4703 27.7065 29.4703C28.9275 29.4703 29.917 28.4807 29.917 27.2599V17.6313C29.9171 16.4106 28.9275 15.4209 27.7065 15.4209Z" fill="#F5A623"/>
<path d="M29.2696 35.3271C28.8589 34.9155 28.2892 34.6797 27.7066 34.6797C27.125 34.6797 26.5551 34.9156 26.1435 35.3271C25.7328 35.7387 25.4961 36.3085 25.4961 36.8901C25.4961 37.4729 25.7328 38.0417 26.1435 38.4532C26.5551 38.8649 27.125 39.1006 27.7066 39.1006C28.2891 39.1006 28.8579 38.8648 29.2696 38.4532C29.6812 38.0417 29.917 37.4729 29.917 36.8901C29.917 36.3085 29.6811 35.7387 29.2696 35.3271Z" fill="#F5A623"/>
</svg>

<svg width="56" height="49" fill="none" xmlns="http://www.w3.org/2000/svg"><path d="m54.118 38.192-.017-.03L33.712 4.124l-.006-.01A6.979 6.979 0 0 0 29.37.934a6.978 6.978 0 0 0-5.314.817 7.054 7.054 0 0 0-2.363 2.363l-.006.01L1.298 38.161l-.018.031a6.979 6.979 0 0 0-.702 5.33 6.978 6.978 0 0 0 3.273 4.266 7.042 7.042 0 0 0 3.46.941h40.801a7.033 7.033 0 0 0 6.947-7.101 7.04 7.04 0 0 0-.94-3.436zm-6.044 6.117H7.324a2.607 2.607 0 0 1-2.475-1.93 2.586 2.586 0 0 1 .252-1.963L25.476 6.402c.216-.354.518-.656.873-.871a2.587 2.587 0 0 1 1.97-.303 2.586 2.586 0 0 1 1.604 1.174l20.374 34.014c.219.383.337.819.342 1.26a2.607 2.607 0 0 1-2.565 2.633z" fill="#F5A623"/><path d="M27.706 15.42c-1.22 0-2.21.99-2.21 2.211v9.629a2.21 2.21 0 1 0 4.421 0V17.63c0-1.22-.99-2.21-2.21-2.21zM29.27 35.327a2.222 2.222 0 0 0-1.563-.647c-.582 0-1.152.236-1.564.647a2.23 2.23 0 0 0-.647 1.563c0 .583.237 1.152.648 1.563.411.412.981.648 1.563.648s1.15-.236 1.563-.648c.411-.411.647-.98.647-1.563 0-.581-.236-1.151-.647-1.563z" fill="#F5A623"/></svg>
